X: 41659
T: Upper Denton
R: hornpipe
M: 4/4
K: Dmajor
|:ag|fada AdFd|DFAd FAdf|gfga bged|c2 A2 Agfe|
dAFA GBAG|FAdf edfa|gfed cbag|f2 d2 d2:|
|:cd|ecef gecA|d2 ge afdf|gaba gfed|caec A/A/A fe|
dAFA GBAG|FAdf edfa|gfed cbag|f2 d2 d2:|

